X: 29434
T: Night Before Larry Was Stretched, The
R: slip jig
M: 9/8
K: Gminor
|:BAG GDG G2 B|AGF FCF ABc|BAG GDG G2 B|ABc cdB AGF:|
|:Bdd ded f3|B2d def ecA|B2 d ded d2d|dcB cdB AGF:|

